component-icons/svg/ziplibrary.svg

<?xml version="1.0" encoding="utf-8"?>
<!-- Generator: Adobe Illustrator 24.2.3, SVG Export Plug-In . SVG Version: 6.00 Build 0)  -->
<svg version="1.1" id="Layer_1" xmlns="http://www.w3.org/2000/svg" xmlns:xlink="http://www.w3.org/1999/xlink" x="0px" y="0px"
	 width="24px" height="24px" viewBox="0 0 24 24" enable-background="new 0 0 24 24" xml:space="preserve">
<path d="M9,10V8H7v2H9z M9,6V4H7v2H9z M9,14v-2H7v2H9z M0,0v24h20l4-4V0H0z M22,19.2L19.2,22H2V2h3v2h2V2h15V19.2z M5,20h4v-4H5V20z
	 M5,12h2v-2H5V12z M5,8h2V6H5V8z"/>
</svg>

<svg id="Layer_1" data-name="Layer 1" xmlns="http://www.w3.org/2000/svg" viewBox="0 0 24 24">
  <defs>
    <style>
      .cls-1 {
        fill: gray;
      }
    </style>
  </defs>
  <title>ziplibrary</title>
  <path class="cls-1" d="M9,10V8H7v2ZM9,6V4H7V6Zm0,8V12H7v2ZM0,0V24H20l4-4V0ZM22,19.17,19.17,22H2V2H5V4H7V2H22ZM5,20H9V16H5Zm0-8H7V10H5ZM5,8H7V6H5Z"/>
</svg>
